include/LD/assets/icons/utility/zoomout.svg

<?xml version="1.0"?><svg xmlns="http://www.w3.org/2000/svg" width="52" height="52" viewBox="0 0 52 52"><path fill="#fff" d="m19 25h12c0.6 0 1-0.4 1-1v-4c0-0.6-0.4-1-1-1h-12m0 0h-6c-0.6 0-1 0.4-1 1v4c0 0.6 0.4 1 1 1h6"></path><path fill="#fff" d="m49.6 45.3l-11.5-11.5c2.4-3.3 3.9-7.4 3.9-11.8 0-11-9-20-20-20s-20 9-20 20 9 20 20 20c4.4 0 8.5-1.5 11.8-3.9l11.5 11.5c0.6 0.6 1.5 0.6 2.1 0l2.1-2.1c0.6-0.6 0.6-1.6 0.1-2.2z m-27.6-9.3c-7.7 0-14-6.3-14-14s6.3-14 14-14 14 6.3 14 14-6.3 14-14 14z"></path></svg>

<svg xmlns="http://www.w3.org/2000/svg" x="0px" y="0px"
	 width="52px" height="52px" viewBox="0 0 52 52" enable-background="new 0 0 52 52" xml:space="preserve">
<g>
	<path fill="#FFFFFF" d="M19,25h12c0.6,0,1-0.4,1-1v-4c0-0.6-0.4-1-1-1H19"/>
</g>
<g>
	<path fill="#FFFFFF" d="M19,19h-6c-0.6,0-1,0.4-1,1v4c0,0.6,0.4,1,1,1h6"/>
</g>
<path fill="#FFFFFF" d="M49.6,45.3L38.1,33.8C40.5,30.5,42,26.4,42,22c0-11-9-20-20-20S2,11,2,22s9,20,20,20c4.4,0,8.5-1.5,11.8-3.9
	l11.5,11.5c0.6,0.6,1.5,0.6,2.1,0l2.1-2.1C50.1,46.9,50.1,45.9,49.6,45.3z M22,36c-7.7,0-14-6.3-14-14S14.3,8,22,8s14,6.3,14,14
	S29.7,36,22,36z"/>
</svg>
